li/gui-spellcheck.svg

<svg role="img" focusable="false" aria-hidden="true" xmlns="http://www.w3.org/2000/svg" viewBox="0 0 14 14" height="1em" width="1em">
  <path d="m 6.836416,8.898735 1.221032,0 -2.985394,-7.594938 -1.08666,0 L 1,8.898735 l 1.221032,0 0.654334,-1.752678 3.295034,0 0.666016,1.752678 z m -3.51704,-2.92113 1.209348,-3.224928 1.209348,3.224928 -2.418696,0 z m 8.856866,0.344694 -4.726388,4.726386 -2.14411,-2.14995 -0.823758,0.823758 2.97371,2.97371 L 13,7.146057 12.176242,6.322299 Z"/>
</svg>

<svg aria-hidden="true" xmlns="http://www.w3.org/2000/svg" viewBox="0 0 14 14" height="1em" width="1em">
  <path d="M6.836 8.899h1.221L5.072 1.304H3.985L1 8.899h1.221l.654-1.753H6.17L6.836 8.9zM3.32 5.978l1.21-3.225 1.21 3.225H3.32zm8.857.344L7.45 11.05 5.306 8.9l-.824.823 2.974 2.974L13 7.146l-.824-.824Z"/>
</svg>
